X: 85
T: Ge qingcai
L: 1/16
M: 2/4
K: G
d2 e dA4 [I:setbarnb 1]| 
d2 e dA4 | 
G4d3 e | 
B d A EG4 | 
G2 G E d2 B d | 
G2 E D B d B A | 
G G G E d2 A B | 
A B A ED4 | 
B2 e2 B e B A | 
G G G E d2 A B | 
A B A ED4 |]

@@@ Tune index: 8959
